assets/img/braze_icons/flag-06.svg

<svg fill="none" height="24" viewBox="0 0 24 24" width="24" xmlns="http://www.w3.org/2000/svg"><path clip-rule="evenodd" d="m5.56811 2h5.86379c.2524-.00003.4982-.00006.7063.01695.2286.01868.4984.06274.7698.20104.3763.19175.6823.49771.874.87403.1383.27143.1824.54116.2011.76976.0036.04446.0064.09063.0087.13823l5.4401-.00001c.2524-.00003.4982-.00006.7063.01695.2286.01868.4984.06274.7698.20104.3763.19175.6823.49771.874.87403.1383.27143.1824.54116.2011.76975.017.20817.0169.45397.0169.70635v6.86378c0 .2524.0001.4982-.0169.7063-.0187.2286-.0628.4984-.2011.7698-.1917.3763-.4977.6823-.874.874-.2714.1383-.5412.1824-.7698.2011-.2081.017-.4539.0169-.7063.0169h-4.8638c-.2524 0-.4982.0001-.7063-.0169-.2286-.0187-.4984-.0628-.7698-.2011-.3763-.1917-.6823-.4977-.874-.874-.1383-.2714-.1824-.5412-.201-.7698-.0039-.0471-.0069-.0962-.0092-.1468-.1772.0087-.3745.0086-.5759.0086h-6.4319v7c0 .5523-.44771 1-1 1-.55228 0-1-.4477-1-1v-17c0-.07671.00864-.15139.02499-.22314.02271-.20913.07148-.44633.193-.68484.19175-.37632.49771-.68228.87403-.87403.27143-.1383.54116-.18236.76976-.20104.20815-.01701.45395-.01698.70633-.01695z" fill="#801ed7" fill-rule="evenodd"/></svg>

<svg width="24" height="24" viewBox="0 0 24 24" fill="none" xmlns="http://www.w3.org/2000/svg">
<path fill-rule="evenodd" clip-rule="evenodd" d="M5.56811 2H11.4319C11.6843 1.99997 11.9301 1.99994 12.1382 2.01695C12.3668 2.03563 12.6366 2.07969 12.908 2.21799C13.2843 2.40974 13.5903 2.7157 13.782 3.09202C13.9203 3.36345 13.9644 3.63318 13.9831 3.86178C13.9867 3.90624 13.9895 3.95241 13.9918 4.00001L19.4319 4C19.6843 3.99997 19.9301 3.99994 20.1382 4.01695C20.3668 4.03563 20.6366 4.07969 20.908 4.21799C21.2843 4.40974 21.5903 4.7157 21.782 5.09202C21.9203 5.36345 21.9644 5.63318 21.9831 5.86177C22.0001 6.06994 22 6.31574 22 6.56812V13.4319C22 13.6843 22.0001 13.9301 21.9831 14.1382C21.9644 14.3668 21.9203 14.6366 21.782 14.908C21.5903 15.2843 21.2843 15.5903 20.908 15.782C20.6366 15.9203 20.3668 15.9644 20.1382 15.9831C19.9301 16.0001 19.6843 16 19.4319 16H14.5681C14.3157 16 14.0699 16.0001 13.8618 15.9831C13.6332 15.9644 13.3634 15.9203 13.092 15.782C12.7157 15.5903 12.4097 15.2843 12.218 14.908C12.0797 14.6366 12.0356 14.3668 12.017 14.1382C12.0131 14.0911 12.0101 14.042 12.0078 13.9914C11.8306 14.0001 11.6333 14 11.4319 14L5 14L5 21C5 21.5523 4.55229 22 4 22C3.44772 22 3 21.5523 3 21V4C3 3.92329 3.00864 3.84861 3.02499 3.77686C3.0477 3.56773 3.09647 3.33053 3.21799 3.09202C3.40974 2.7157 3.7157 2.40974 4.09202 2.21799C4.36345 2.07969 4.63318 2.03563 4.86178 2.01695C5.06993 1.99994 5.31573 1.99997 5.56811 2Z" fill="#801ED7"/>
</svg>
